picto/pushchair-right-framed.svg

<svg class="color-immutable" width="30" height="30" viewBox="0 0 30 30" fill="none" xmlns="http://www.w3.org/2000/svg"><path d="M30 0H0V30H30V0Z" fill="#2D327D"/><path d="M25.5 3C26.325 3 27 3.675 27 4.5V25.5C27 26.325 26.325 27 25.5 27H4.5C3.675 27 3 26.325 3 25.5V4.5C3 3.675 3.675 3 4.5 3H25.5ZM25.5 2.625H4.5C3.46613 2.625 2.625 3.46613 2.625 4.5V25.5C2.625 26.5339 3.46613 27.375 4.5 27.375H25.5C26.5339 27.375 27.375 26.5339 27.375 25.5V4.5C27.375 3.46613 26.5339 2.625 25.5 2.625Z" fill="white"/><path d="M21.6796 21.4827C21.6796 20.0327 20.4999 18.8531 19.0498 18.8531C17.5998 18.8531 16.4202 20.0327 16.4202 21.4827C16.4202 22.9328 17.5998 24.1125 19.0498 24.1125C20.4998 24.1125 21.6796 22.9329 21.6796 21.4827ZM20.9202 21.4827C20.9202 22.514 20.0811 23.3531 19.0498 23.3531C18.0185 23.3531 17.1795 22.514 17.1795 21.4827C17.1795 20.4512 18.0185 19.6121 19.0498 19.6121C20.0811 19.6122 20.9202 20.4512 20.9202 21.4827Z" fill="white"/><path d="M14.9249 21.4827C14.9249 20.0327 13.7453 18.8531 12.2953 18.8531C10.8454 18.8531 9.66565 20.0327 9.66565 21.4827C9.66565 22.9328 10.8454 24.1125 12.2953 24.1125C13.7453 24.1125 14.9249 22.9329 14.9249 21.4827ZM14.1657 21.4827C14.1657 22.514 13.3266 23.3531 12.2953 23.3531C11.264 23.3531 10.4247 22.514 10.4247 21.4827C10.4247 20.4512 11.264 19.6121 12.2953 19.6121C13.3266 19.6122 14.1657 20.4512 14.1657 21.4827Z" fill="white"/><path d="M23.1128 12.4828C22.8854 14.6126 22.0227 16.5524 20.7156 18.1076H10.5644C9.25697 16.5524 8.39424 14.6126 8.16699 12.4828H23.1128Z" fill="white"/><path d="M16.6414 11.7326C16.229 11.7326 16.0602 11.4403 16.2665 11.0832L19.409 5.64023C21.5391 6.87293 23.0043 9.12683 23.1332 11.7327H16.6414V11.7326Z" fill="white"/><path d="M5.925 11.4352H10.4248V12.0353H5.925C5.75993 12.0353 5.625 11.9003 5.625 11.7354C5.625 11.5703 5.75993 11.4352 5.925 11.4352Z" fill="white"/></svg>

<svg class="color-immutable" width="30" height="30" viewBox="0 0 30 30" fill="none" xmlns="http://www.w3.org/2000/svg"><g clip-path="url(#a)"><path d="M30 0H0v30h30V0Z" fill="#2D327D"/><path d="M25.5 3c.825 0 1.5.675 1.5 1.5v21c0 .825-.675 1.5-1.5 1.5h-21c-.825 0-1.5-.675-1.5-1.5v-21C3 3.675 3.675 3 4.5 3h21Zm0-.375h-21A1.877 1.877 0 0 0 2.625 4.5v21c0 1.034.841 1.875 1.875 1.875h21a1.877 1.877 0 0 0 1.875-1.875v-21A1.877 1.877 0 0 0 25.5 2.625Z" fill="#fff"/><path d="M21.68 21.483c0-1.45-1.18-2.63-2.63-2.63s-2.63 1.18-2.63 2.63 1.18 2.63 2.63 2.63 2.63-1.18 2.63-2.63Zm-.76 0c0 1.031-.839 1.87-1.87 1.87-1.032 0-1.87-.839-1.87-1.87 0-1.032.838-1.87 1.87-1.87 1.031 0 1.87.838 1.87 1.87ZM14.925 21.483c0-1.45-1.18-2.63-2.63-2.63s-2.63 1.18-2.63 2.63 1.18 2.63 2.63 2.63 2.63-1.18 2.63-2.63Zm-.76 0c0 1.031-.838 1.87-1.87 1.87-1.031 0-1.87-.839-1.87-1.87 0-1.032.839-1.87 1.87-1.87 1.032 0 1.87.838 1.87 1.87ZM23.113 12.483a10.454 10.454 0 0 1-2.397 5.625H10.564a10.45 10.45 0 0 1-2.397-5.625h14.946ZM16.641 11.733c-.412 0-.58-.293-.374-.65l3.142-5.443a7.466 7.466 0 0 1 3.724 6.093h-6.492ZM5.925 11.435h4.5v.6h-4.5a.3.3 0 0 1-.3-.3.3.3 0 0 1 .3-.3Z" fill="#fff"/></g><defs><clipPath id="a"><path fill="#fff" d="M0 0h30v30H0z"/></clipPath></defs></svg>
